public/coins/aBUSD.svg

<svg height="256" viewBox="0 0 256 256" width="256" xmlns="http://www.w3.org/2000/svg" xmlns:xlink="http://www.w3.org/1999/xlink"><linearGradient id="a" gradientUnits="objectBoundingBox" x1=".843" x2=".206" y1=".135" y2=".886"><stop offset="0" stop-color="#b6509e"/><stop offset="1" stop-color="#2ebac6"/></linearGradient><clipPath id="b"><path d="m0 0h256v256h-256z"/></clipPath><g clip-path="url(#b)"><path d="m128 256a129.015 129.015 0 0 1 -25.8-2.6 127.323 127.323 0 0 1 -45.77-19.261 128.365 128.365 0 0 1 -46.375-56.316 127.344 127.344 0 0 1 -7.455-24.023 129.25 129.25 0 0 1 0-51.593 127.311 127.311 0 0 1 19.26-45.77 128.371 128.371 0 0 1 56.317-46.378 127.339 127.339 0 0 1 24.023-7.459 129.268 129.268 0 0 1 51.593 0 127.31 127.31 0 0 1 45.77 19.26 128.37 128.37 0 0 1 46.375 56.317 127.338 127.338 0 0 1 7.462 24.023 129.247 129.247 0 0 1 0 51.593 127.307 127.307 0 0 1 -19.26 45.77 128.374 128.374 0 0 1 -56.316 46.374 127.428 127.428 0 0 1 -24.024 7.463 129.015 129.015 0 0 1 -25.8 2.6zm0-242.287a115.127 115.127 0 0 0 -23.032 2.322 113.664 113.664 0 0 0 -40.868 17.198 114.618 114.618 0 0 0 -41.4 50.282 113.7 113.7 0 0 0 -6.659 21.452 115.4 115.4 0 0 0 0 46.065 113.67 113.67 0 0 0 17.2 40.866 114.629 114.629 0 0 0 50.282 41.407 113.736 113.736 0 0 0 21.453 6.658 115.366 115.366 0 0 0 46.065 0 113.612 113.612 0 0 0 40.866-17.2 114.615 114.615 0 0 0 41.393-50.278 113.723 113.723 0 0 0 6.659-21.452 115.4 115.4 0 0 0 0-46.065 113.662 113.662 0 0 0 -17.2-40.865 114.62 114.62 0 0 0 -50.274-41.403 113.683 113.683 0 0 0 -21.453-6.659 115.127 115.127 0 0 0 -23.032-2.327z" fill="url(#a)"/><path d="m180.068 82 24.507 24.513-61.5 61.522-24.513-24.513zm-61.393 135.142 24.507 24.513 98.285-98.285-24.507-24.513zm36.857 36.858 24.53 24.571 98.285-98.285-24.507-24.514zm-24.712-73.715-24.513-24.513-24.507 24.513 24.507 24.507z" fill="#f0b90b" transform="translate(-52.086 -52.286)"/></g></svg>

<svg xmlns="http://www.w3.org/2000/svg" xmlns:xlink="http://www.w3.org/1999/xlink" width="256" height="256" viewBox="0 0 256 256"><defs><linearGradient id="a" x1="0.843" y1="0.135" x2="0.206" y2="0.886" gradientUnits="objectBoundingBox"><stop offset="0" stop-color="#b6509e"/><stop offset="1" stop-color="#2ebac6"/></linearGradient><clipPath id="c"><rect width="256" height="256"/></clipPath></defs><g id="b" clip-path="url(#c)"><g transform="translate(-20 -20)"><path d="M128,256a129.015,129.015,0,0,1-25.8-2.6,127.323,127.323,0,0,1-45.77-19.261,128.365,128.365,0,0,1-46.375-56.316A127.344,127.344,0,0,1,2.6,153.8a129.25,129.25,0,0,1,0-51.593,127.311,127.311,0,0,1,19.26-45.77A128.371,128.371,0,0,1,78.177,10.059,127.339,127.339,0,0,1,102.2,2.6a129.268,129.268,0,0,1,51.593,0,127.31,127.31,0,0,1,45.77,19.26,128.37,128.37,0,0,1,46.375,56.317A127.338,127.338,0,0,1,253.4,102.2a129.247,129.247,0,0,1,0,51.593,127.307,127.307,0,0,1-19.26,45.77,128.374,128.374,0,0,1-56.316,46.374A127.428,127.428,0,0,1,153.8,253.4,129.015,129.015,0,0,1,128,256Zm0-242.287a115.127,115.127,0,0,0-23.032,2.322A113.664,113.664,0,0,0,64.1,33.233,114.618,114.618,0,0,0,22.7,83.515a113.7,113.7,0,0,0-6.659,21.452,115.4,115.4,0,0,0,0,46.065,113.67,113.67,0,0,0,17.2,40.866,114.629,114.629,0,0,0,50.282,41.407,113.736,113.736,0,0,0,21.453,6.658,115.366,115.366,0,0,0,46.065,0,113.612,113.612,0,0,0,40.866-17.2A114.615,114.615,0,0,0,233.3,172.485a113.723,113.723,0,0,0,6.659-21.452,115.4,115.4,0,0,0,0-46.065,113.662,113.662,0,0,0-17.2-40.865A114.62,114.62,0,0,0,172.485,22.7a113.683,113.683,0,0,0-21.453-6.659A115.127,115.127,0,0,0,128,13.714Z" transform="translate(20 20)" fill="url(#a)"/><g transform="translate(49.714 49.714)"><path d="M180.068,82l24.507,24.513-61.5,61.522-24.513-24.513ZM118.675,217.142l24.507,24.513,98.285-98.285L216.96,118.857ZM155.532,254l24.53,24.571,98.285-98.285L253.84,155.772ZM130.82,180.285l-24.513-24.513L81.8,180.285l24.507,24.507Z" transform="translate(-81.8 -82)" fill="#f0b90b"/></g></g></g></svg>
